X: 43
T:Cuil Aodha Slide
N: page 14
N: heptatonic
R:slide
S:Mike Long
M:12/8
L:1/8
K:D
"Bm" Bcd Bcd "A" c2 A A2 d | "Bm" Bcd "A" e2 f "G" g3 gfg | "D" a2f "A" gfe "D" f2 d A2 A | "G" Bcd "A" e2 c "D" (d3 d3) :|
"D"  a2 f "A" gfe "D" f2 d A2 A | "Bm" Bcd "A" e2 f "G" g3 gfg | "D" a2f "A" gfe "D" f2 d A2 A | "G" Bcd "A" e2 c "D" (d3 d3) :|
